src/static/logos/rabbitmq.svg

<?xml version="1.0" encoding="UTF-8" standalone="no"?>
<svg width="256px" height="271px" viewBox="0 0 256 271" version="1.1" xmlns="http://www.w3.org/2000/svg" xmlns:xlink="http://www.w3.org/1999/xlink" preserveAspectRatio="xMidYMid">
    <g>
        <path d="M245.44,108.307692 L160.349538,108.307692 C156.081231,108.307692 152.615385,104.841846 152.615385,100.573538 L152.615385,11.8941538 C152.615385,5.32676923 147.288615,0 140.726154,0 L110.350769,0 C103.783385,0 98.4615385,5.32676923 98.4615385,11.8941538 L98.4615385,100.036923 C98.4615385,104.610462 94.7643077,108.327385 90.1907692,108.347077 L62.3064615,108.48 C57.6935385,108.504615 53.9470769,104.763077 53.9569231,100.155077 L54.1292308,11.9138462 C54.144,5.33661538 48.8172308,0 42.24,0 L11.8892308,0 C5.32184615,0 0,5.32676923 0,11.8941538 L0,260.209231 C0,266.043077 4.72615385,270.769231 10.5550769,270.769231 L245.44,270.769231 C251.273846,270.769231 256,266.043077 256,260.209231 L256,118.867692 C256,113.033846 251.273846,108.307692 245.44,108.307692 L245.44,108.307692 Z M205.538462,201.540923 C205.538462,209.186462 199.340308,215.384615 191.694769,215.384615 L167.689846,215.384615 C160.044308,215.384615 153.846154,209.186462 153.846154,201.540923 L153.846154,177.536 C153.846154,169.890462 160.044308,163.692308 167.689846,163.692308 L191.694769,163.692308 C199.340308,163.692308 205.538462,169.890462 205.538462,177.536 L205.538462,201.540923 L205.538462,201.540923 Z" fill="#FF6600"></path>
    </g>
</svg>

<svg width="256" height="271" xmlns="http://www.w3.org/2000/svg" preserveAspectRatio="xMidYMid"><path d="M245.44 108.308h-85.09a7.738 7.738 0 01-7.735-7.734v-88.68C152.615 5.327 147.29 0 140.726 0h-30.375c-6.568 0-11.89 5.327-11.89 11.894v88.143c0 4.573-3.697 8.29-8.27 8.31l-27.885.133c-4.612.025-8.359-3.717-8.35-8.325l.173-88.241C54.144 5.337 48.817 0 42.24 0H11.89C5.321 0 0 5.327 0 11.894V260.21c0 5.834 4.726 10.56 10.555 10.56H245.44c5.834 0 10.56-4.726 10.56-10.56V118.868c0-5.834-4.726-10.56-10.56-10.56zm-39.902 93.233c0 7.645-6.198 13.844-13.843 13.844H167.69c-7.646 0-13.844-6.199-13.844-13.844v-24.005c0-7.646 6.198-13.844 13.844-13.844h24.005c7.645 0 13.843 6.198 13.843 13.844v24.005z" fill="#F60"/></svg>
